!!!!SEGMENT: pl-wn--mus-iii-65-947-cim--025_sowinski-wojciech--swiety-wojciech-meczennik-no-23-kwartet.krn
!!!cenid: 18xx:3618
!!!COM: Sowiński, Wojciech
!!!COM-rismID: pe30008543
!!!CDT: ~1803-1880/03/05
!!!CNT:
!!!GTL: Święty Wojciech męczennik
!!!OTL: No. 23. Kwartet
!!!PDT: 1877
!!!AGN:
!!!SMS-siglum: PL-Wn
!!!SMS-shelfmark: Mus.III.65.947 Cim.
!!!SMS-shelfwork: 025 G
!!!SMS-variant:
!!!SMS-altvar:
!!!NIFC-rismSourceID:
!!!NIFC-rismChildID:
!!!NIFC-islandoraID:
!!!URL-pdf-islandora:
!!!URL-scan: https://polona.pl/item/swiety-wojciech-meczennik-oratorjo-w-trzech-czesciach-dzielo-66-spiew-z-fortepianem,MTkzODI1Mzc/242/#item @EN{Scan on Polona} @PL{Skany w portalu Polona}
!!!ONB-nifc: UWAGA: oratorium zawiera w źródle 28 numerów podzielonych na 30 plików (rozdzielenie w No. 6 - osobno Recitativo oraz Aria matki i No. 10 - osobno Recitativo, arja i chór oraz Sen). Polecam widok miniatur na Polonie. Uwaga co do obsady: prosimy umieszczać tylko partie występujące w danym numerze (nie całą obsadę oratorium)
!!!AIN: 1 bass 2 piano 1 tenor 2 vox
!!!key:
**kern	**kern	**dynam	**kern	**text	**dynam	**kern	**text	**dynam	**kern	**text	**dynam	**kern	**text	**dynam
*part6	*part5	*part5	*part4	*part4	*part4	*part3	*part3	*part3	*part2	*part2	*part2	*part1	*part1	*part1
*staff6	*staff5	*	*staff4	*staff4	*	*staff3	*staff3	*	*staff2	*staff2	*	*staff1	*staff1	*
*I"PIANO.	*I"PIANO.	*	*I"BAS.solo.	*	*	*I"TEN.solo.	*	*	*I"ASTERY.	*	*	*I"PROMIEN.	*	*
*I'pf	*I'pf	*	*I'B	*	*	*I'T	*	*	*I'ASTERY.	*	*	*I'PROMIEN.	*	*
*ICklav	*ICklav	*	*ICvox	*	*	*ICvox	*	*	*ICvox	*	*	*ICvox	*	*
*Ipiano	*Ipiano	*	*Ibass	*	*	*Itenor	*	*	*Ivox	*	*	*Ivox	*	*
*clefF4	*clefG2	*	*clefF4	*	*	*clefGv2	*	*	*clefG2	*	*	*clefG2	*	*
*k[f#]	*k[f#]	*	*k[f#]	*	*	*k[f#]	*	*	*k[f#]	*	*	*k[f#]	*	*
*G:	*G:	*	*G:	*	*	*G:	*	*	*G:	*	*	*G:	*	*
*M6/8	*M6/8	*	*M6/8	*	*	*M6/8	*	*	*M6/8	*	*	*M6/8	*	*
=1	=1	=1	=1	=1	=1	=1	=1	=1	=1	=1	=1	=1	=1	=1
*xywh-175:195,1379,1981,608	*	*	*	*	*	*	*	*	*	*	*	*	*	*
*	*xywh-175:195,1379,1981,608	*	*	*	*	*	*	*	*	*	*	*	*	*
*	*	*	*xywh-175:231,1298,1930,152	*	*	*	*	*	*	*	*	*	*	*
*	*	*	*	*	*	*xywh-175:234,1149,1870,161	*	*	*	*	*	*	*	*
*	*	*	*	*	*	*	*	*	*xywh-175:255,933,1891,233	*	*	*	*	*
*	*	*	*	*	*	*	*	*	*	*	*	*xywh-175:165,130,1999,842	*	*
!	!LO:TX:b:i:t=molto legato.	!	!	!	!	!	!	!	!	!	!	!	!	!
!	!LO:TX:a:i:t=Grazioso.	!	!	!	!	!LO:TX:t=P:problem=brak 8 pod kluczem	!	!	!	!	!LO:DY:a	!LO:TX:a:i:t=Grazioso.	!	!LO:DY:a
4G\ 4B 4d	(8b\L	p	2.r	.	.	2.r	.	.	4g/	Ock-	p	4b\	Ock-	p
.	16gg\L	.	.	.	.	.	.	.	.	.	.	.	.	.
.	16bb\J	.	.	.	.	.	.	.	.	.	.	.	.	.
8G\ 8B 8d	8ddd'\J)	.	.	.	.	.	.	.	8b\	-nij	.	8dd\	-nij	.
4G\ 4B 4d	8b\L	.	.	.	.	.	.	.	4g/	się	.	4b\	się	.
.	(16a#X\L	.	.	.	.	.	.	.	.	.	.	.	.	.
.	16b\	.	.	.	.	.	.	.	.	.	.	.	.	.
.	8qdd/	.	.	.	.	.	.	.	.	.	.	.	.	.
8G\ 8B 8d	16cc\	.	.	.	.	.	.	.	8g/	Woj-	.	8b\	Woj-	.
.	16b\JJ)	.	.	.	.	.	.	.	.	.	.	.	.	.
=2	=2	=2	=2	=2	=2	=2	=2	=2	=2	=2	=2	=2	=2	=2
4F#\ 4A 4d	(8cc\L	.	2.r	.	.	2.r	.	.	4a/	-cie-	.	4cc\	-cie-	.
.	16ff#\L	.	.	.	.	.	.	.	.	.	.	.	.	.
.	16aa\J	.	.	.	.	.	.	.	.	.	.	.	.	.
8D\ 8d	8ddd'\J)	.	.	.	.	.	.	.	8d/	-chu,	.	8dd\	-chu,	.
4F#\ 4d	(4a^/ 4cc	.	.	.	.	.	.	.	4a/	oc-	.	4cc\	oc-	.
8G\ 8d	8g/) 8b	.	.	.	.	.	.	.	8g/	-knij	.	8b\	-knij	.
=3	=3	=3	=3	=3	=3	=3	=3	=3	=3	=3	=3	=3	=3	=3
4D\ 4A 4d	(8f#\L 8a	.	2.r	.	.	2.r	.	.	4f#/	się	.	4a\	się	.
.	16ff#\L	.	.	.	.	.	.	.	.	.	.	.	.	.
.	16aa\J	.	.	.	.	.	.	.	.	.	.	.	.	.
8D\ 8d	8ddd'\J)	.	.	.	.	.	.	.	8d/	Woj-	.	8dd\	Woj-	.
4F#\ 4c 4d	8a\L	.	.	.	.	.	.	.	4f#/	-cie-	.	4a\	-cie-	.
.	(16cc#X\L	.	.	.	.	.	.	.	.	.	.	.	.	.
.	16dd\	.	.	.	.	.	.	.	.	.	.	.	.	.
8F#\ 8c 8d	16ee\	.	.	.	.	.	.	.	(16cc\LL	-chu,	.	(16ee\LL	-chu,	.
.	16dd\JJ)	.	.	.	.	.	.	.	16b\JJ)	.	.	16dd\JJ)	.	.
!!LO:LB:g=original	!	!	!	!	!	!	!	!	!	!	!	!	!	!
=4	=4	=4	=4	=4	=4	=4	=4	=4	=4	=4	=4	=4	=4	=4
*^	*	*	*	*	*	*	*	*	*	*	*	*	*	*
*xywh-175:129,2648,2014,485	*	*	*	*	*	*	*	*	*	*	*	*	*	*	*
*	*xywh-175:129,2648,2014,485	*	*	*	*	*	*	*	*	*	*	*	*	*	*
*	*	*xywh-175:129,2648,2014,485	*	*	*	*	*	*	*	*	*	*	*	*	*
*	*	*	*	*	*	*	*	*	*	*xywh-175:186,2198,1924,215	*	*	*	*	*
*	*	*	*	*	*	*	*	*	*	*	*	*	*xywh-175:195,2015,1909,224	*	*
4G\ 4B 4d	4.ryy	(8dd\L	.	2.r	.	.	2.r	.	.	4b\	Wstań	.	4dd\	Wstań	.
.	.	16gg\L	.	.	.	.	.	.	.	.	.	.	.	.	.
.	.	16bb\	.	.	.	.	.	.	.	.	.	.	.	.	.
8G\ 8B 8d	.	16ddd\)	.	.	.	.	.	.	.	8g/	ob-	.	8gg\	ob-	.
.	.	16ggg'\JJ	.	.	.	.	.	.	.	.	.	.	.	.	.
8G/L	4G\	(4b\ 4dd	.	.	.	.	.	.	.	4b/	-roń-	.	4dd\	-roń-	.
16c#X/L	.	.	.	.	.	.	.	.	.	.	.	.	.	.	.
16d/	.	.	.	.	.	.	.	.	.	.	.	.	.	.	.
16e/	8ryy	8a\) 8cc	.	.	.	.	.	.	.	8a/	-co	.	8cc\	-co	.
16f#/JJ	.	.	.	.	.	.	.	.	.	.	.	.	.	.	.
*v	*v	*	*	*	*	*	*	*	*	*	*	*	*	*	*
=5	=5	=5	=5	=5	=5	=5	=5	=5	=5	=5	=5	=5	=5	=5
4G\	(8g\L 8b	.	2.r	.	.	2.r	.	.	(4g/	wia-	.	(4b\	wia-	.
.	16gg\L	.	.	.	.	.	.	.	.	.	.	.	.	.
.	16bb\J	.	.	.	.	.	.	.	.	.	.	.	.	.
8G\ 8B 8d	8ddd'\J)	.	.	.	.	.	.	.	8b/)	.	.	8dd\)	.	.
4G\ 4B 4d	8b\L	.	.	.	.	.	.	.	8g/	-ry,	.	8b\	-ry,	.
.	(16a#X\L	.	.	.	.	.	.	.	(16f#/LL	u-	.	(16a\LL	u-	.
.	16b\	.	.	.	.	.	.	.	16g/JJ)	.	.	16b\JJ)	.	.
.	8qdd/	.	.	.	.	.	.	.	.	.	.	.	.	.
8G\ 8B 8d	16cc\	.	.	.	.	.	.	.	(16a/LL	-lu-	.	(16cc\LL	-lu-	.
.	16b\JJ)	.	.	.	.	.	.	.	16g/JJ)	.	.	16b\JJ)	.	.
=6	=6	=6	=6	=6	=6	=6	=6	=6	=6	=6	=6	=6	=6	=6
4F#\ 4A 4d	(8cc\L	.	2.r	.	.	2.r	.	.	4a/	-bień-	.	4cc\	-bień-	.
.	16ff#\L	.	.	.	.	.	.	.	.	.	.	.	.	.
.	16aa\J	.	.	.	.	.	.	.	.	.	.	.	.	.
8D\ 8d	8ddd'\J)	.	.	.	.	.	.	.	8b/	-cze	.	8dd\	-cze	.
4F#\ 4d	8a\L	.	.	.	.	.	.	.	4a/	u-	.	4cc\	u-	.
.	(16cc#X\L	.	.	.	.	.	.	.	.	.	.	.	.	.
.	16dd\	.	.	.	.	.	.	.	.	.	.	.	.	.
8F#\ 8d	16ee\	.	.	.	.	.	.	.	8g/	-lu-	.	8b\	-lu-	.
.	16dd\JJ)	.	.	.	.	.	.	.	.	.	.	.	.	.
=7	=7	=7	=7	=7	=7	=7	=7	=7	=7	=7	=7	=7	=7	=7
4E\ 4d	8f#\L 8a	.	2.r	.	.	2.r	.	.	(4.d/	-bień-	.	(4.a/	-bień-	.
!	!	!LO:HP:b	!	!	!	!	!	!	!	!	!	!	!	!
.	16dd\L	<	.	.	.	.	.	.	.	.	.	.	.	.
.	16ee\	.	.	.	.	.	.	.	.	.	.	.	.	.
8D\ 8F# 8A 8d	16dd\ 16ff#	.	.	.	.	.	.	.	.	.	.	.	.	.
.	16ee\JJ 16gg	.	.	.	.	.	.	.	.	.	.	.	.	.
4D\ 4F# 4A 4d	16ff#\LL 16aa	.	.	.	.	.	.	.	8f#/L	.	.	8dd\L	.	.
.	16gg\ 16bb	.	.	.	.	.	.	.	.	.	.	.	.	.
.	16aa\ 16ccc	.	.	.	.	.	.	.	8a/J)	.	.	8ee\J)	.	.
.	16bb\ 16ddd	.	.	.	.	.	.	.	.	.	.	.	.	.
8D\ 8d	16ccc\ 16eee	.	.	.	.	.	.	.	8f#/	-cze	.	8dd\	-cze	.
.	16aa\JJ 16fff#	[	.	.	.	.	.	.	.	.	.	.	.	.
!!LO:LB:g=original	!	!	!	!	!	!	!	!	!	!	!	!	!	!
!!LO:PB:g=original	!	!	!	!	!	!	!	!	!	!	!	!	!	!
=8	=8	=8	=8	=8	=8	=8	=8	=8	=8	=8	=8	=8	=8	=8
*xywh-176:397,669,1990,497	*	*	*	*	*	*	*	*	*	*	*	*	*	*
*	*xywh-176:397,669,1990,497	*	*	*	*	*	*	*	*	*	*	*	*	*
*	*	*	*xywh-176:385,528,2056,260	*	*	*	*	*	*	*	*	*	*	*
*	*	*	*	*	*	*xywh-176:427,387,1996,230	*	*	*	*	*	*	*	*
*	*	*	*	*	*	*	*	*	*xywh-176:418,279,2011,170	*	*	*	*	*
*	*	*	*	*	*	*	*	*	*	*	*	*xywh-176:433,117,1984,221	*	*
4G\ 4d	8ddd\L 8bbb	.	2.r	.	.	2.r	.	.	4.g\	mój!	.	4.b\	mój!	.
.	16b\L	.	.	.	.	.	.	.	.	.	.	.	.	.
.	16dd\J	.	.	.	.	.	.	.	.	.	.	.	.	.
8G\ 8B 8d	8gg\J	.	.	.	.	.	.	.	.	.	.	.	.	.
4.G\ 4.B 4.d	4.g^/	.	.	.	.	.	.	.	4r	.	.	4r	.	.
.	.	.	.	.	.	.	.	.	8r	.	.	8r	.	.
=9	=9	=9	=9	=9	=9	=9	=9	=9	=9	=9	=9	=9	=9	=9
!	!	!	!	!	!LO:DY:a	!	!	!LO:DY:a	!	!	!	!	!	!
!	!	!LO:DY:b	!	!	!	!	!	!	!	!	!	!	!	!
4C\	(8gg\L	f	4c\	Ock-	f	4e\	Ock-	f	2.r	.	.	2.r	.	.
.	16ccc\L	.	.	.	.	.	.	.	.	.	.	.	.	.
.	16eee\J	.	.	.	.	.	.	.	.	.	.	.	.	.
8G\ 8c 8e	8ggg\J)	.	8c\	-nij	.	8e\	-nij	.	.	.	.	.	.	.
4G\ 4c 4e	8ee\L 8gg	.	4c\	się	.	(8e\L	się	.	.	.	.	.	.	.
.	(16dd#X\L 16ff#X	.	.	.	.	16d#X\L	.	.	.	.	.	.	.	.
.	16ee\ 16gg	.	.	.	.	16e\JJ)	.	.	.	.	.	.	.	.
8C\ 8c	16ff#\ 16aa	.	8c\	Woj-	.	(16f#\LL	Woj-	.	.	.	.	.	.	.
.	16ee\JJ) 16gg	.	.	.	.	16e\JJ)	.	.	.	.	.	.	.	.
=10	=10	=10	=10	=10	=10	=10	=10	=10	=10	=10	=10	=10	=10	=10
4GG\ 4G	(8b\L 8dd	.	4B\	-cie-	.	4d\	-cie-	.	2.r	.	.	2.r	.	.
.	16bb\L	.	.	.	.	.	.	.	.	.	.	.	.	.
.	16ddd\J	.	.	.	.	.	.	.	.	.	.	.	.	.
8G\ 8B 8d	8ggg\J)	.	8G\	-chu,	.	8g\	-chu,	.	.	.	.	.	.	.
4.G\ 4.B 4.d	4b^\	.	4G\	wstań	.	4B/	wstań	.	.	.	.	.	.	.
.	8b\	.	8G\	ob-	.	8B/	ob-	.	.	.	.	.	.	.
=11	=11	=11	=11	=11	=11	=11	=11	=11	=11	=11	=11	=11	=11	=11
*^	*	*	*	*	*	*	*	*	*	*	*	*	*	*
*xywh-176:397,669,1990,497	*	*	*	*	*	*	*	*	*	*	*	*	*	*	*
*	*xywh-176:397,669,1990,497	*	*	*	*	*	*	*	*	*	*	*	*	*	*
*	*	*xywh-176:397,669,1990,497	*	*	*	*	*	*	*	*	*	*	*	*	*
!	!	!	!	!	!	!LO:DY:a	!	!	!LO:DY:a	!	!	!	!	!	!
4FF#/	4.ryy	(8a#X\L	.	(4.F#\	-roń-	<	4A#X/	-roń-	<	2.r	.	.	2.r	.	.
.	.	16aa#X\L	.	.	.	.	.	.	.	.	.	.	.	.	.
.	.	16ccc#X\J	.	.	.	.	.	.	.	.	.	.	.	.	.
8F#\ 8A#X 8c#X	.	8fff#\J)	.	.	.	.	8f#\	-co	[	.	.	.	.	.	.
8F#\L	4.A# 4.c#/ 4.f#	8ff#\L	.	8F#\L	.	[	4f#\	bos-	.	.	.	.	.	.	.
8G#X\	.	16ee#X^\L	.	8G#X\J)	.	.	.	.	.	.	.	.	.	.	.
.	.	16ff#\	.	.	.	.	.	.	.	.	.	.	.	.	.
8A#\J	.	16ee#^\	.	8A#X\	-co	.	8e\	-kiej	.	.	.	.	.	.	.
.	.	16ff#\JJ	.	.	.	.	.	.	.	.	.	.	.	.	.
!!LO:LB:g=original	!	!	!	!	!	!	!	!	!	!	!	!	!	!	!
=12	=12	=12	=12	=12	=12	=12	=12	=12	=12	=12	=12	=12	=12	=12	=12
*	*	*^	*	*	*	*	*	*	*	*	*	*	*	*	*
*xywh-176:373,1700,2029,461	*	*	*	*	*	*	*	*	*	*	*	*	*	*	*	*
*	*xywh-176:373,1700,2029,461	*	*	*	*	*	*	*	*	*	*	*	*	*	*	*
*	*	*xywh-176:373,1700,2029,461	*	*	*	*	*	*	*	*	*	*	*	*	*	*
*	*	*	*xywh-176:373,1700,2029,461	*	*	*	*	*	*	*	*	*	*	*	*	*
*	*	*	*	*	*xywh-176:412,1529,2008,239	*	*	*	*	*	*	*	*	*	*	*
*	*	*	*	*	*	*	*	*xywh-176:421,1397,1972,233	*	*	*	*	*	*	*	*
*	*	*	*	*	*	*	*	*	*	*	*xywh-176:448,1265,1942,227	*	*	*	*	*
*	*	*	*	*	*	*	*	*	*	*	*	*	*	*xywh-176:466,1106,1942,227	*	*
!	!	!	!	!LO:DY:b	!	!	!	!	!	!	!	!	!	!	!	!
4.B\	4.ryy	8dd/L	16dd\LL	p	(8B\	wia-	.	8d\L	wia-	.	2.r	.	.	2.r	.	.
.	.	.	16ff#\	.	.	.	.	.	.	.	.	.	.	.	.	.
.	.	8cc#X/	16cc#\	.	4F#\)	.	.	8.c#X\	.	.	.	.	.	.	.	.
.	.	.	16ff#\J	.	.	.	.	.	.	.	.	.	.	.	.	.
.	.	[8b/J	8b\J	.	.	.	.	.	.	.	.	.	.	.	.	.
.	.	.	.	.	.	.	.	16B\Jk	.	.	.	.	.	.	.	.
8d/L	16d\LL	4.b\]	8ryy	.	4.BB/	-ry	.	4.B\	-ry	.	.	.	.	.	.	.
.	16f#\	.	.	.	.	.	.	.	.	.	.	.	.	.	.	.
8c#X/	16c#\	.	4ryy	.	.	.	.	.	.	.	.	.	.	.	.	.
.	16f#\J	.	.	.	.	.	.	.	.	.	.	.	.	.	.	.
8B/J	8B\J	.	.	.	.	.	.	.	.	.	.	.	.	.	.	.
*v	*v	*	*	*	*	*	*	*	*	*	*	*	*	*	*	*
*	*v	*v	*	*	*	*	*	*	*	*	*	*	*	*	*
=13	=13	=13	=13	=13	=13	=13	=13	=13	=13	=13	=13	=13	=13	=13
!	!	!	!	!	!LO:DY:a	!	!	!LO:DY:a	!	!	!LO:DY:a	!	!	!LO:DY:a
4C/	(8cc\L 8ee	.	4C/	Ock-	f	4cn\	Ock-	f	4cc\	Ock-	f	4ee\	Ock-	f
.	16gg\L	.	.	.	.	.	.	.	.	.	.	.	.	.
.	16ccc\J	.	.	.	.	.	.	.	.	.	.	.	.	.
8G\ 8c 8e	8ggg\J)	.	8C/	-nij	.	8c\	-nij	.	8ee\	-nij	.	8gg\	-nij	.
4G\ 4c 4e	8cc\L 8ee	.	4C/	się	.	4c\	się	.	(8cc\L	się	.	(8ee\L	się	.
.	(16b\L 16dd#X	.	.	.	.	.	.	.	16b\L	.	.	16dd#X\L	.	.
.	16cc\ 16ee	.	.	.	.	.	.	.	16cc\JJ)	.	.	16ee\JJ)	.	.
8G\ 8c 8e	16ddn\ 16ff#	.	8C/	Woj-	.	8c\	Woj-	.	(16dd\LL	Woj-	.	(16ff#\LL	Woj-	.
.	16cc\JJ) 16ee	.	.	.	.	.	.	.	16cc\JJ)	.	.	16ee\JJ)	.	.
=14	=14	=14	=14	=14	=14	=14	=14	=14	=14	=14	=14	=14	=14	=14
4GG\ 4G	(8b\L 8dd	.	4.G\	-cie-	.	[4d\	-cie-	.	4.b\	-cie-	.	(4dd\	-cie-	.
.	16bb\L	.	.	.	.	.	.	.	.	.	.	.	.	.
.	16ddd\J	.	.	.	.	.	.	.	.	.	.	.	.	.
8B\ 8d	8ggg\J)	.	.	.	.	8d\]	.	.	.	.	.	8gg\)	.	.
(8G\L	4.b\	.	4.G\	-chu,	.	4d\	-chu,	.	4b\	-chu,	.	4b\	-chu,	.
16B\L	.	.	.	.	.	.	.	.	.	.	.	.	.	.
16d\J	.	.	.	.	.	.	.	.	.	.	.	.	.	.
8g\J)	.	.	.	.	.	(16g\LL	ob-	.	8b\	ob-	.	8b\	ob-	.
.	.	.	.	.	.	16f#\JJ)	.	.	.	.	.	.	.	.
!!LO:LB:g=original	!	!	!	!	!	!	!	!	!	!	!	!	!	!
=15	=15	=15	=15	=15	=15	=15	=15	=15	=15	=15	=15	=15	=15	=15
*	*^	*	*	*	*	*	*	*	*	*	*	*	*	*
*xywh-176:364,2706,2029,512	*	*	*	*	*	*	*	*	*	*	*	*	*	*	*
*	*xywh-176:364,2706,2029,512	*	*	*	*	*	*	*	*	*	*	*	*	*	*
*	*	*xywh-176:364,2706,2029,512	*	*	*	*	*	*	*	*	*	*	*	*	*
*	*	*	*	*xywh-176:397,2565,1981,233	*	*	*	*	*	*	*	*	*	*	*
*	*	*	*	*	*	*	*xywh-176:409,2430,2002,206	*	*	*	*	*	*	*	*
*	*	*	*	*	*	*	*	*	*	*xywh-176:424,2278,1984,206	*	*	*	*	*
*	*	*	*	*	*	*	*	*	*	*	*	*	*xywh-176:451,2071,1963,263	*	*
!	!	!	!LO:DY:b	!	!	!	!	!	!	!	!	!	!	!	!
4AA\ 4A	(8cc#X\L	4.ryy	f	4.A\	wstań	.	4e\	-roń-	.	(4.g/	-roń-	.	(4.cc#X\	-roń-	.
.	16ccc#X\L	.	.	.	.	.	.	.	.	.	.	.	.	.	.
.	16eee\J	.	.	.	.	.	.	.	.	.	.	.	.	.	.
8A\ 8c#X 8e	8aaa\J)	.	.	.	.	.	8e\	-co	.	.	.	.	.	.	.
4A\ 4c# 4e	8aa/L	8aa\L	.	8A\	ob-	.	4e\	wia-	.	4cc#X\)	.	.	(8aa\L	.	.
.	8gg#X/	16gg#\L	.	8A\	-roń-	.	.	.	.	.	.	.	8gg\J))	.	.
.	.	16aa\	.	.	.	.	.	.	.	.	.	.	.	.	.
8A\ 8c# 8e	8ggn/J	16gg\	.	8A\	-co	.	8c#X\	-ry	.	(16a/LL	-co	.	8ee\	-co	.
.	.	16aa\JJ	.	.	.	.	.	.	.	16g/JJ)	.	.	.	.	.
=16	=16	=16	=16	=16	=16	=16	=16	=16	=16	=16	=16	=16	=16	=16	=16
*^	*	*	*	*	*	*	*	*	*	*	*	*	*	*	*
*xywh-176:364,2706,2029,512	*	*	*	*	*	*	*	*	*	*	*	*	*	*	*	*
*	*xywh-176:364,2706,2029,512	*	*	*	*	*	*	*	*	*	*	*	*	*	*	*
*	*	*xywh-176:364,2706,2029,512	*	*	*	*	*	*	*	*	*	*	*	*	*	*
*	*	*	*xywh-176:364,2706,2029,512	*	*	*	*	*	*	*	*	*	*	*	*	*
!	!	!	!	!LO:DY:b	!	!	!	!	!	!	!	!	!	!	!	!
4.D\ 4.d	4.ryy	8ff#/L	16ff#\LL	p	(4.D\	wia-	.	4d\	wstań	.	4f#/	wia-	.	4dd\	wia-	.
.	.	.	16aa\	.	.	.	.	.	.	.	.	.	.	.	.	.
.	.	8ee/	16ee\	.	.	.	.	.	.	.	.	.	.	.	.	.
.	.	.	16aa\J	.	.	.	.	.	.	.	.	.	.	.	.	.
.	.	8dd/J	8dd\J	.	.	.	.	8d\	ob-	.	8f#/	-ry	.	8dd\	-ry	.
*clefG2	*	*	*	*	*	*	*	*	*	*	*	*	*	*	*	*
!	!	!	!	!LO:DY:b	!	!	!	!	!	!	!	!	!	!	!	!
8f#\L	16f#/LL	4dd\	4.ryy	pp	8D\L	.	.	4d\	-roń-	.	4f#/	u-	.	4dd\	u-	.
.	16a/	.	.	.	.	.	.	.	.	.	.	.	.	.	.	.
8e\	16e/	.	.	.	8E\	.	.	.	.	.	.	.	.	.	.	.
.	16a/J	.	.	.	.	.	.	.	.	.	.	.	.	.	.	.
8d\J	8g/J	8ccn\	.	.	8F#\J)	.	.	8d\	-co	.	8a/	-lu-	.	8ccn\	-lu-	.
*v	*v	*	*	*	*	*	*	*	*	*	*	*	*	*	*	*
*	*v	*v	*	*	*	*	*	*	*	*	*	*	*	*	*
*clefF4	*	*	*	*	*	*	*	*	*	*	*	*	*	*
=17	=17	=17	=17	=17	=17	=17	=17	=17	=17	=17	=17	=17	=17	=17
!	!	!LO:DY:b	!	!	!	!	!	!	!	!	!	!	!	!
4G\ 4B 4d	(8g\L 8b	p	4.G\	-ry;	.	4d\	wia-	.	(4g/	-bień-	.	(4b\	-bień-	.
.	16gg\L	.	.	.	.	.	.	.	.	.	.	.	.	.
.	16bb\J	.	.	.	.	.	.	.	.	.	.	.	.	.
8G\ 8B 8d	8ddd\J)	.	.	.	.	8d\	-ry;	.	8b/)	.	.	8dd\)	.	.
4G\ 4B 4d	8g/ 8b	.	4G\	tam	.	8G/L	tam	.	8g/	-cze	.	8b\	-cze	.
.	(16f#/LL 16a	.	.	.	.	8d/J	.	.	(16f#/LL	u-	.	(16a/LL	u-	.
.	16g/ 16b	.	.	.	.	.	.	.	16g/JJ)	.	.	16b/JJ)	.	.
.	8qdd/	.	.	.	.	.	.	.	.	.	.	.	.	.
8G\ 8B 8d	16a/ 16dd	.	8G\	nad	.	8d\	nad	.	(16a/LL	-lu-	.	(16cc/LL	-lu-	.
.	16g/JJ) 16b	.	.	.	.	.	.	.	16g/JJ)	.	.	16b/JJ)	.	.
!!LO:LB:g=original	!	!	!	!	!	!	!	!	!	!	!	!	!	!
!!LO:PB:g=original	!	!	!	!	!	!	!	!	!	!	!	!	!	!
=18	=18	=18	=18	=18	=18	=18	=18	=18	=18	=18	=18	=18	=18	=18
*xywh-177:156,876,2026,404	*	*	*	*	*	*	*	*	*	*	*	*	*	*
*	*xywh-177:156,876,2026,404	*	*	*	*	*	*	*	*	*	*	*	*	*
*	*	*	*xywh-177:168,747,1951,179	*	*	*	*	*	*	*	*	*	*	*
*	*	*	*	*	*	*xywh-177:150,591,1996,191	*	*	*	*	*	*	*	*
*	*	*	*	*	*	*	*	*	*xywh-177:156,438,1957,191	*	*	*	*	*
*	*	*	*	*	*	*	*	*	*	*	*	*xywh-177:183,198,1966,272	*	*
4D\ 4d	(8a\L 8cc	.	4F#\	czo-	.	4d\	czo-	.	4a/	-bień-	.	4cc\	-bień-	.
.	16ff#\L	.	.	.	.	.	.	.	.	.	.	.	.	.
.	16aa\J	.	.	.	.	.	.	.	.	.	.	.	.	.
8D\ 8d	8ddd\J)	.	8D\	-łem	.	8A/	-łem	.	8f#/	-cze	.	8dd\	-cze	.
4F#\ 4d	4a/ 4cc	.	4F#\	gwiaz-	.	4d\	gwiaz-	.	(4a/	mój	.	(4cc\	mój	.
8G\ 8d	8g/ 8b	.	8G\	-da	.	8d\	-da	.	8g/)	.	.	8b\)	.	.
=19	=19	=19	=19	=19	=19	=19	=19	=19	=19	=19	=19	=19	=19	=19
4D\ 4d	(8a\L 8cc	.	4.D\	nad	.	4.d\	nad	.	4.f#/	nad	.	4a\	tam	.
.	16ff#\L	.	.	.	.	.	.	.	.	.	.	.	.	.
.	16aa\J	.	.	.	.	.	.	.	.	.	.	.	.	.
8D\ 8d	8ddd\J)	.	.	.	.	.	.	.	.	.	.	8dd\	nad	.
4D\ 4d	8f#/L 8a	.	4D\	czo-	.	4d\	czo-	.	4f#/	czo-	.	(8dd\L	czo-	.
.	(16e/L 16cc#X	.	.	.	.	.	.	.	.	.	.	16cc#X\L	.	.
.	16f#/ 16dd	.	.	.	.	.	.	.	.	.	.	16dd\JJ)	.	.
8D\ 8d	16g/ 16ee	.	8D\	-łem	.	8d\	-łem	.	8f#/	-łem	.	16ee\LL	-łem	.
.	16f#/JJ) 16dd	.	.	.	.	.	.	.	.	.	.	16dd\JJ	.	.
=20	=20	=20	=20	=20	=20	=20	=20	=20	=20	=20	=20	=20	=20	=20
4G\ 4B	(8g\L 8b	.	4G\	gwiaz-	.	4d\	gwiaz-	.	4g/	gwiaz-	.	4dd\	gwiaz-	.
.	16gg\L	.	.	.	.	.	.	.	.	.	.	.	.	.
.	16bb\J)	.	.	.	.	.	.	.	.	.	.	.	.	.
8G\ 8B	8ddd\J	.	8G\	-da,	.	8B\	-da,	.	8g/	-da,	.	8gg\	-da,	.
4G\ 4B 4d	(8b/L 8dd	.	4G\	w głę-	.	4d\	w głe-	.	(8b/L	w głę-	.	(8dd\L	w głę-	.
.	8a#X/ 8cc#X	.	.	.	.	.	.	.	8a#X/J)	.	.	8cc#X\J)	.	.
8G\ 8d 8f#	8an/J) 8ccn	.	8G\	-bi	.	8d\	-bi	.	8an/	-bi	.	8ccn\	-bi	.
!!LO:LB:g=original	!	!	!	!	!	!	!	!	!	!	!	!	!	!
=21	=21	=21	=21	=21	=21	=21	=21	=21	=21	=21	=21	=21	=21	=21
*xywh-177:138,1844,2002,416	*	*	*	*	*	*	*	*	*	*	*	*	*	*
*	*xywh-177:138,1844,2002,416	*	*	*	*	*	*	*	*	*	*	*	*	*
*	*	*	*xywh-177:162,1706,1957,191	*	*	*	*	*	*	*	*	*	*	*
*	*	*	*	*	*	*xywh-177:171,1556,1927,197	*	*	*	*	*	*	*	*
*	*	*	*	*	*	*	*	*	*xywh-177:186,1406,1912,185	*	*	*	*	*
*	*	*	*	*	*	*	*	*	*	*	*	*xywh-177:204,1244,1888,209	*	*
4G\ 4B 4d	(8g\L 8b	.	4G\	tej	.	4d\	tej	.	4g/	tej	.	4b\	tej	.
.	16gg\L	.	.	.	.	.	.	.	.	.	.	.	.	.
.	16bb\J)	.	.	.	.	.	.	.	.	.	.	.	.	.
8G\ 8B 8d	8ddd\J	.	8G\	pie-	.	8G/	pie-	.	8b/	pie-	.	8dd\	pie-	.
4G\ 4B 4d	8b\L	.	4G\	-cza-	.	4d\	-cza-	.	(8g/L	-cza-	.	(8b/L	-cza-	.
.	(16a#X\L	.	.	.	.	.	.	.	16f#/L	.	.	16a#X/L	.	.
.	16b\	.	.	.	.	.	.	.	16g/JJ)	.	.	16b/JJ)	.	.
.	8qdd/	.	.	.	.	.	.	.	.	.	.	.	.	.
8G\ 8B 8d	16cc\	.	8G\	-ry	.	8d\	-ry	.	(16a/LL	-ry	.	(16cc/LL	-ry	.
.	16b\JJ)	.	.	.	.	.	.	.	16g/JJ)	.	.	16b/JJ)	.	.
=22	=22	=22	=22	=22	=22	=22	=22	=22	=22	=22	=22	=22	=22	=22
4F#\ 4A 4d	(8cc\L	.	4F#\	pły-	.	4d\	pły-	.	4a/	pły-	.	4cc\	pły-	.
.	16ff#\L	.	.	.	.	.	.	.	.	.	.	.	.	.
.	16aa\J)	.	.	.	.	.	.	.	.	.	.	.	.	.
8D\ 8d	8ddd\J	.	8D\	-nie	.	8d\	-nie	.	8f#/	-nie	.	8dd\	-nie	.
16D\LL	(4a/ 4dd	.	4F#\	ży-	.	4d\	ży-	.	4a/	ży-	.	4cc\	ży-	.
16F#\	.	.	.	.	.	.	.	.	.	.	.	.	.	.
16A\	.	.	.	.	.	.	.	.	.	.	.	.	.	.
16d\J	.	.	.	.	.	.	.	.	.	.	.	.	.	.
8G\J	8g/) 8b	.	8G\	-cia	.	8d\	-cia	.	8g/	-cia	.	8b\	-cia	.
=23	=23	=23	=23	=23	=23	=23	=23	=23	=23	=23	=23	=23	=23	=23
4D\	8f#/ 8a	.	[4.D\	ży-	.	(4.d\	ży-	.	[4.f#/	ży-	.	(4.a\	ży-	.
.	16dd\LL	.	.	.	.	.	.	.	.	.	.	.	.	.
.	16ee\	.	.	.	.	.	.	.	.	.	.	.	.	.
8D\ 8F# 8A 8d	16dd\ 16ff#	.	.	.	.	.	.	.	.	.	.	.	.	.
.	16ee\JJ 16gg	.	.	.	.	.	.	.	.	.	.	.	.	.
4D\ 4F# 4A 4d	16ff#\LL 16aa	.	4D\]	.	.	4A\)	.	.	4f#/]	.	.	8dd\L	.	.
.	16gg\ 16bb	.	.	.	.	.	.	.	.	.	.	.	.	.
.	16aa\ 16ccc	.	.	.	.	.	.	.	.	.	.	8ee\J)	.	.
.	16bb\ 16ddd	.	.	.	.	.	.	.	.	.	.	.	.	.
8D\ 8A 8d	16ccc\ 16eee	.	8D\	-cia	.	8A/	-cia	.	8f#/	-cia	.	8dd\	-cia	.
.	16aa\JJ 16fff#	.	.	.	.	.	.	.	.	.	.	.	.	.
!!LO:LB:g=original	!	!	!	!	!	!	!	!	!	!	!	!	!	!
=24	=24	=24	=24	=24	=24	=24	=24	=24	=24	=24	=24	=24	=24	=24
*xywh-177:126,2773,1999,512	*	*	*	*	*	*	*	*	*	*	*	*	*	*
*	*xywh-177:126,2773,1999,512	*	*	*	*	*	*	*	*	*	*	*	*	*
*	*	*	*xywh-177:165,2668,1939,200	*	*	*	*	*	*	*	*	*	*	*
*	*	*	*	*	*	*xywh-177:174,2536,1945,173	*	*	*	*	*	*	*	*
*	*	*	*	*	*	*	*	*	*xywh-177:177,2393,1912,185	*	*	*	*	*
*	*	*	*	*	*	*	*	*	*	*	*	*xywh-177:165,2225,1927,209	*	*
!	!	!LO:DY:b	!	!	!	!	!	!	!	!	!	!	!	!
4G\ 4g	8bb\L 8ggg	f	4G\	zdrój!	.	4B\	zdrój!	.	4g/	zdrój!	.	4g/	zdrój!	.
.	(16gg\L 16bb	.	.	.	.	.	.	.	.	.	.	.	.	.
.	16aa\J 16ccc	.	.	.	.	.	.	.	.	.	.	.	.	.
8F#\ 8f#	8dd\J) 8ddd	.	8r	.	.	8r	.	.	8r	.	.	8r	.	.
4E\ 4e	(8ee\L 8gg 8ddd	.	4r	.	.	4r	.	.	4r	.	.	4r	.	.
.	16ccc\L	.	.	.	.	.	.	.	.	.	.	.	.	.
.	16bb\J	.	.	.	.	.	.	.	.	.	.	.	.	.
8F#\ 8f#	8ccc\J)	.	8r	.	.	8r	.	.	8r	.	.	8r	.	.
=25	=25	=25	=25	=25	=25	=25	=25	=25	=25	=25	=25	=25	=25	=25
*	*^	*	*	*	*	*	*	*	*	*	*	*	*	*
*xywh-177:126,2773,1999,512	*	*	*	*	*	*	*	*	*	*	*	*	*	*	*
*	*xywh-177:126,2773,1999,512	*	*	*	*	*	*	*	*	*	*	*	*	*	*
*	*	*xywh-177:126,2773,1999,512	*	*	*	*	*	*	*	*	*	*	*	*	*
4D\ 4d	(8dd\L 8ff# 8ccc	4.ryy	.	2.r	.	.	2.r	.	.	2.r	.	.	2.r	.	.
.	16bb\L	.	.	.	.	.	.	.	.	.	.	.	.	.	.
.	16aa\J	.	.	.	.	.	.	.	.	.	.	.	.	.	.
8G\ 8g	8ee\J) 8gg 8bb	.	.	.	.	.	.	.	.	.	.	.	.	.	.
8C\L 8c	(24bb/LL	8cc\L 8ee	.	.	.	.	.	.	.	.	.	.	.	.	.
.	24aa/	.	.	.	.	.	.	.	.	.	.	.	.	.	.
.	24gg/J	.	.	.	.	.	.	.	.	.	.	.	.	.	.
8D\ 8d	8ff#/	16dd\L	.	.	.	.	.	.	.	.	.	.	.	.	.
.	.	16cc\J	.	.	.	.	.	.	.	.	.	.	.	.	.
8E\J 8e	8gg/J)	8b\J	.	.	.	.	.	.	.	.	.	.	.	.	.
*	*v	*v	*	*	*	*	*	*	*	*	*	*	*	*	*
=26	=26	=26	=26	=26	=26	=26	=26	=26	=26	=26	=26	=26	=26	=26
4C\ 4c	4cc\ 4ee 4aa	.	2.r	.	.	2.r	.	.	2.r	.	.	2.r	.	.
8AA\ 8A	8cc\ 8ff# 8ccc	.	.	.	.	.	.	.	.	.	.	.	.	.
(16D\LL 16d	8a\L 8dd 8ff#	.	.	.	.	.	.	.	.	.	.	.	.	.
16C\J) 16c	.	.	.	.	.	.	.	.	.	.	.	.	.	.
8BB\ 8B	8b\ 8dd 8gg	.	.	.	.	.	.	.	.	.	.	.	.	.
8GG\J 8G	8dd\J 8gg 8bb	.	.	.	.	.	.	.	.	.	.	.	.	.
=27	=27	=27	=27	=27	=27	=27	=27	=27	=27	=27	=27	=27	=27	=27
8C^\L 8c	8cc\L 8ee 8aa	.	4r	.	.	4r	.	.	4r	.	.	4r	.	.
8AA^\ 8A	8cc\ 8ee	.	.	.	.	.	.	.	.	.	.	.	.	.
8D^\J 8d	8cc\J 8dd 8ff#	.	8r	.	.	8r	.	.	8r	.	.	8r	.	.
4GG\ 4G	4b\ 4dd 4gg	.	4r	.	.	4r	.	.	4r	.	.	4r	.	.
8r	8d/	.	8G\	Ach	.	8d\	Ach	.	8g/	Ach	.	8b\	Ach	.
!!LO:LB:g=original	!	!	!	!	!	!	!	!	!	!	!	!	!	!
!!LO:PB:g=original	!	!	!	!	!	!	!	!	!	!	!	!	!	!
=28	=28	=28	=28	=28	=28	=28	=28	=28	=28	=28	=28	=28	=28	=28
*xywh-178:435,755,1963,482	*	*	*	*	*	*	*	*	*	*	*	*	*	*
*	*xywh-178:435,755,1963,482	*	*	*	*	*	*	*	*	*	*	*	*	*
*	*	*	*xywh-178:470,632,1958,232	*	*	*	*	*	*	*	*	*	*	*
*	*	*	*	*	*	*xywh-178:490,487,1918,222	*	*	*	*	*	*	*	*
*	*	*	*	*	*	*	*	*	*xywh-178:480,335,1955,239	*	*	*	*	*
*	*	*	*	*	*	*	*	*	*	*	*	*xywh-178:470,138,1958,292	*	*
!	!	!LO:DY:b	!	!	!	!	!	!	!	!	!	!	!	!
4GG\ 4G	16g/LL 16b	mf	4G\	ock-	.	4d\	ock-	.	(16g/LL	ock-	.	(16b/LL	ock-	.
.	16a/J 16cc	.	.	.	.	.	.	.	16a/J	.	.	16cc/J	.	.
.	8b/ 8dd	.	.	.	.	.	.	.	8b/J)	.	.	8dd/J)	.	.
8FF#\ 8F#	8d/J 8a 8dd	.	8F#\	-nij	.	8d\	-nij	.	8a/	-nij	.	8dd\	-nij	.
4EE\ 4E	8e^/L 8g 8dd	.	4E\	się	.	4e\	się	.	4g/	się	.	(8dd\L	się	.
.	(16cc/L	.	.	.	.	.	.	.	.	.	.	16cc\L	.	.
.	16b/J	.	.	.	.	.	.	.	.	.	.	16b\JJ)	.	.
8AA\ 8A	8e/J) 8cc	.	8A\	Woj-	.	8e\	Woj-	.	8a/	Woj-	.	8cc\	Woj-	.
=29	=29	=29	=29	=29	=29	=29	=29	=29	=29	=29	=29	=29	=29	=29
*	*^	*	*	*	*	*	*	*	*	*	*	*	*	*
*xywh-178:435,755,1963,482	*	*	*	*	*	*	*	*	*	*	*	*	*	*	*
*	*xywh-178:435,755,1963,482	*	*	*	*	*	*	*	*	*	*	*	*	*	*
*	*	*xywh-178:435,755,1963,482	*	*	*	*	*	*	*	*	*	*	*	*	*
!	!	!	!	!	!	!LO:HP:a:t=decres.	!	!	!LO:HP:a:t=decres.	!	!	!LO:HP:a:t=decres.	!	!	!LO:HP:a:t=decres.
!	!	!	!	!	!	!	!	!	!	!	!	!	!	!	!
4DD\ 4D	8cc/L	4d\ 4f#	.	4D\	-cie-	>	4d\	-cie-	>	4f#/	-cie-	>	(8cc/L	-cie-	>
.	16b/L	.	.	.	.	.	.	.	.	.	.	.	16b/L	.	.
.	16a/J	.	.	.	.	.	.	.	.	.	.	.	16a/JJ)	.	.
8GG\ 8G	8b/J	8d\	.	8G\	-chu,	.	8d\	-chu,	.	8g/	-chu,	.	(8b/L	-chu,	.
*	*	*	*	*	*	*	*	*	*	*	*	*	*Xtuplet	*	*
*	*Xtuplet	*	*	*	*	*	*	*	*	*	*	*	*	*	*
8CC/L 8C	24b/LL	8c\L 8e	.	(8C\L	wstań	.	(8c\L	wstań	.	(8e/L	u-	.	24b/L	.	.
.	24a/	.	.	.	.	.	.	.	.	.	.	.	24a/	.	.
.	24g/J	.	.	.	.	.	.	.	.	.	.	.	24g/JJ)	.	.
8DD/ 8D	8f#/	16d\L	.	8D\J)	.	.	16d\L	.	.	8f#/J)	.	.	8f#/	u-	.
.	.	16c\J	.	.	.	.	16c\JJ)	.	.	.	.	.	.	.	.
8EE/J 8E	8g/J	8B\J	.	8E\	ob-	.	8B\	ob-	.	8e/	-lu-	.	8g/	-lu-	.
*	*v	*v	*	*	*	*	*	*	*	*	*	*	*	*	*
=30	=30	=30	=30	=30	=30	=30	=30	=30	=30	=30	=30	=30	=30	=30
*^	*	*	*	*	*	*	*	*	*	*	*	*	*	*
*xywh-178:435,755,1963,482	*	*	*	*	*	*	*	*	*	*	*	*	*	*	*
*	*xywh-178:435,755,1963,482	*	*	*	*	*	*	*	*	*	*	*	*	*	*
*	*	*xywh-178:435,755,1963,482	*	*	*	*	*	*	*	*	*	*	*	*	*
!	!	!	!LO:HP:b	!	!	!	!	!	!	!	!	!	!	!	!
4CC/ 4C	4.ryy	4c/ 4e 4a	<	4C/	-roń-	.	(4.c\	-roń-	.	4e/	-bień-	.	4a/	-bień-	.
8AAA/ 8AA	.	8c/ 8e 8cc	[	8AA/	-co	.	.	.	.	8e/	-cze	.	8cc\	-cze	.
16D\LL	4DD\	8A</L 8d 8f#	.	4D\	bos-	.	16d\LL	.	.	4f#/	u-	.	(8f#/L	u-	.
16C\J	.	.	.	.	.	.	16c\J	.	.	.	.	.	.	.	.
8BB\	.	8B</ 8d 8g	.	.	.	.	8B\J)	.	.	.	.	.	8g/J)	.	.
8GG\J	8ryy	8d</J 8g 8b	.	8BB/	-kiej	.	8d\	-co	.	8g/	-lu-	.	8b\	-lu-	.
*v	*v	*	*	*	*	*	*	*	*	*	*	*	*	*	*
!!LO:LB:g=original	!	!	!	!	!	!	!	!	!	!	!	!	!	!
=31	=31	=31	=31	=31	=31	=31	=31	=31	=31	=31	=31	=31	=31	=31
*xywh-178:415,1749,1998,459	*	*	*	*	*	*	*	*	*	*	*	*	*	*
*	*xywh-178:415,1749,1998,459	*	*	*	*	*	*	*	*	*	*	*	*	*
*	*	*	*xywh-178:430,1594,1958,209	*	*	*	*	*	*	*	*	*	*	*
*	*	*	*	*	*	*xywh-178:477,1454,1925,239	*	*	*	*	*	*	*	*
*	*	*	*	*	*	*	*	*	*xywh-178:485,1317,1903,227	*	*	*	*	*
*	*	*	*	*	*	*	*	*	*	*	*	*xywh-178:470,1139,1930,239	*	*
!	!	!	!	!	!LO:DY:a	!	!	!LO:DY:a	!	!	!LO:DY:a	!	!	!LO:DY:a
!	!	!LO:DY:b	!	!	!	!	!	!	!	!	!	!	!	!
8CC/L 8C	8B/L 8e 8a	p	(4BB/	wia-	p	(8d\L	wia-	p	4e/	-bień-	p	4a/	-bień-	p
8AAA/ 8AA	8c/ 8e	.	.	.	.	8e\J	.	.	.	.	.	.	.	.
8DD/J 8D	8c/J 8d 8a	.	8D/)	.	.	16d\LL	.	.	8d/	-cze	.	8f#/	-cze	.
.	.	.	.	.	.	16c\JJ)	.	.	.	.	.	.	.	.
4BBB/ 4BB	4B/ 4d 4g	.	4G\	-ry!	.	4B\	-ry!	.	4g/	mój!	.	4g/	mój!	.
(8BBB/ 8BB	8r	.	8r	.	.	8r	.	.	8r	.	.	8r	.	.
=32	=32	=32	=32	=32	=32	=32	=32	=32	=32	=32	=32	=32	=32	=32
!	!	!LO:DY:b	!	!	!	!	!	!	!	!	!	!	!	!
8CC/L 8C	2.r	pp	2.r	.	.	4r	.	.	4r	.	.	4r	.	.
8AAA/ 8AA	.	.	.	.	.	.	.	.	.	.	.	.	.	.
8DD/J 8D	.	.	.	.	.	8r	.	.	8r	.	.	8r	.	.
4GGG/) 4GG	.	.	.	.	.	4r	.	.	4r	.	.	4r	.	.
8r	.	.	.	.	.	8e\	ach	.	8g/	Woj-	.	8b\	ach	.
=33	=33	=33	=33	=33	=33	=33	=33	=33	=33	=33	=33	=33	=33	=33
*^	*	*	*	*	*	*	*	*	*	*	*	*	*	*
*xywh-178:415,1749,1998,459	*	*	*	*	*	*	*	*	*	*	*	*	*	*	*
*	*xywh-178:415,1749,1998,459	*	*	*	*	*	*	*	*	*	*	*	*	*	*
*	*	*xywh-178:415,1749,1998,459	*	*	*	*	*	*	*	*	*	*	*	*	*
!	!	!LO:TX:b:i:t=con sordini.	!	!	!	!	!	!	!	!	!	!	!	!	!
!	!	!	!LO:DY:b	!	!	!	!	!	!	!	!	!	!	!	!
8G/L	4.E\	(8b\L	p	2.r	.	.	4e\	oc-	.	4g/	-cie-	.	4b\	oc-	.
8B/	.	16ee\L	.	.	.	.	.	.	.	.	.	.	.	.	.
.	.	16gg\J)	.	.	.	.	.	.	.	.	.	.	.	.	.
8e/J	.	8bb'\J	.	.	.	.	8e\	-knij	.	8g/	-chu	.	8ee\	-knij	.
8G/L	4.E\	8b\L	.	.	.	.	8E/	się	.	8g/	oc-	.	4b\	się!	.
8B/	.	(16a#X\L	.	.	.	.	[8e\	Woj-	.	(16a#X/LL	-knij	.	.	.	.
.	.	16b\	.	.	.	.	.	.	.	16b/	.	.	.	.	.
8e/J	.	16cc\	.	.	.	.	8e\]	.	.	16cc/	.	.	8r	.	.
.	.	16b\JJ)	.	.	.	.	.	.	.	16b/JJ)	.	.	.	.	.
!!LO:LB:g=original	!	!	!	!	!	!	!	!	!	!	!	!	!	!	!
=34	=34	=34	=34	=34	=34	=34	=34	=34	=34	=34	=34	=34	=34	=34	=34
8F#/L	4.D#X\	(8b\L	.	2.r	.	.	4.d#X\	-cie-	.	4f#/	się	.	4b\	oc-	.
8B/	.	16dd#X\L	.	.	.	.	.	.	.	.	.	.	.	.	.
.	.	16ff#\J	.	.	.	.	.	.	.	.	.	.	.	.	.
8d#X/J	.	8bb'\J)	.	.	.	.	.	.	.	8r	.	.	8ff#\	-knij	.
8BB\L	8ryy	4b\	.	.	.	.	4B\	-chu!	.	(8f#/L	nie	.	4b\	się!	.
16D#\L	4ryy	.	.	.	.	.	.	.	.	16d#X/L	.	.	.	.	.
16F#\J	.	.	.	.	.	.	.	.	.	16f#/JJ)	.	.	.	.	.
8B\J	.	8r	.	.	.	.	8r	.	.	8dd\	speł-	.	8r	.	.
=35	=35	=35	=35	=35	=35	=35	=35	=35	=35	=35	=35	=35	=35	=35	=35
*xywh-178:393,2743,1988,512	*	*	*	*	*	*	*	*	*	*	*	*	*	*	*
*	*xywh-178:393,2743,1988,512	*	*	*	*	*	*	*	*	*	*	*	*	*	*
*	*	*xywh-178:393,2743,1988,512	*	*	*	*	*	*	*	*	*	*	*	*	*
*	*	*	*	*xywh-178:435,2591,1945,232	*	*	*	*	*	*	*	*	*	*	*
*	*	*	*	*	*	*	*xywh-178:458,2461,1923,209	*	*	*	*	*	*	*	*
*	*	*	*	*	*	*	*	*	*	*xywh-178:453,2296,1905,237	*	*	*	*	*
*	*	*	*	*	*	*	*	*	*	*	*	*	*xywh-178:460,2129,1910,247	*	*
8F#/L	4.D#X\	(8b\L	.	2.r	.	.	4d\	nie	.	4.f#/	-ni-	.	4b\	oc-	.
8B/	.	16dd#X\L	.	.	.	.	.	.	.	.	.	.	.	.	.
.	.	16ff#\J)	.	.	.	.	.	.	.	.	.	.	.	.	.
8d#X/J	.	8bb'\J	.	.	.	.	8d\	speł-	.	.	.	.	8ff#\	-knij	.
8D#/L	4.BB\	(8b\L	.	.	.	.	(8d\L	-ni-	.	8b\	-łeś	.	4b\	się	.
8F#/	.	16a#X\L	.	.	.	.	8B\J)	.	.	(16a/LL	krwa-	.	.	.	.
.	.	16b\	.	.	.	.	.	.	.	16b/JJ)	.	.	.	.	.
!	!	!	!	!	!	!	!	!	!	!	!	!	!	!	!LO:DY:a
8B/J	.	16cc\	.	.	.	.	8d\	-łeś	.	(16cc/LL	-wej	.	8b\	Woj-	f
.	.	16b\JJ)	.	.	.	.	.	.	.	16b/JJ)	.	.	.	.	.
=36	=36	=36	=36	=36	=36	=36	=36	=36	=36	=36	=36	=36	=36	=36	=36
*	*	*^	*	*	*	*	*	*	*	*	*	*	*	*	*
*xywh-178:393,2743,1988,512	*	*	*	*	*	*	*	*	*	*	*	*	*	*	*	*
*	*xywh-178:393,2743,1988,512	*	*	*	*	*	*	*	*	*	*	*	*	*	*	*
*	*	*xywh-178:393,2743,1988,512	*	*	*	*	*	*	*	*	*	*	*	*	*	*
*	*	*	*xywh-178:393,2743,1988,512	*	*	*	*	*	*	*	*	*	*	*	*	*
8G/L	4.E\	8b\L	4.ryy	.	2.r	.	.	4.e\	cza-	.	4.g/	cza-	.	(4b\	-cie-	.
8B/	.	(16ee\L	.	.	.	.	.	.	.	.	.	.	.	.	.	.
.	.	16gg\	.	.	.	.	.	.	.	.	.	.	.	.	.	.
8e/J	.	16bb\	.	.	.	.	.	.	.	.	.	.	.	8gg\)	.	.
.	.	16ccc\JJ)	.	.	.	.	.	.	.	.	.	.	.	.	.	.
!	!	!	!	!LO:HP:b	!	!	!	!	!	!	!	!	!	!	!	!
8E\L	8ryy	4.b\	8ryy	<	.	.	.	4.E/	-ry!	.	4.g/	-ry!	.	4.ee\	-chu!	.
!	!	!	!	!LO:HP:b	!	!	!	!	!	!	!	!	!	!	!	!
(16E\L	4ryy	.	8ryy	[ >	.	.	.	.	.	.	.	.	.	.	.	.
16G\	.	.	.	.	.	.	.	.	.	.	.	.	.	.	.	.
16c\	.	.	8ryy	]	.	.	.	.	.	.	.	.	.	.	.	.
16G\JJ)	.	.	.	.	.	.	.	.	.	.	.	.	.	.	.	.
*	*	*v	*v	*	*	*	*	*	*	*	*	*	*	*	*	*
=37	=37	=37	=37	=37	=37	=37	=37	=37	=37	=37	=37	=37	=37	=37	=37
8G/L	4.E\	(8.b\L	.	2.r	.	.	4r	.	.	4g/	w głę-	.	(4b\	w głę-	.
8B/	.	.	.	.	.	.	.	.	.	.	.	.	.	.	.
.	.	16ee\L	.	.	.	.	.	.	.	.	.	.	.	.	.
8e/J	.	16gg\	.	.	.	.	8r	.	.	8g/	-bi	.	8ee\)	.	.
.	.	16bb\JJ	.	.	.	.	.	.	.	.	.	.	.	.	.
8G/L	4.E\	8b\L)	.	.	.	.	4e\	w głę-	.	4g/	tej	.	8b\	-bi	.
8B/	.	(16a#X\L	.	.	.	.	.	.	.	.	.	.	(16a#X/LL	tej	.
.	.	16b\	.	.	.	.	.	.	.	.	.	.	16b/JJ)	.	.
8e/J	.	16cc\	.	.	.	.	8e\	-bi	.	8g/	pie-	.	(16cc/LL	pie-	.
.	.	16b\JJ)	.	.	.	.	.	.	.	.	.	.	16b/JJ)	.	.
!!LO:LB:g=original	!	!	!	!	!	!	!	!	!	!	!	!	!	!	!
!!LO:PB:g=original	!	!	!	!	!	!	!	!	!	!	!	!	!	!	!
=38	=38	=38	=38	=38	=38	=38	=38	=38	=38	=38	=38	=38	=38	=38	=38
*xywh-179:118,758,2035,417	*	*	*	*	*	*	*	*	*	*	*	*	*	*	*
*	*xywh-179:118,758,2035,417	*	*	*	*	*	*	*	*	*	*	*	*	*	*
*	*	*xywh-179:118,758,2035,417	*	*	*	*	*	*	*	*	*	*	*	*	*
*	*	*	*	*xywh-179:168,626,1948,154	*	*	*	*	*	*	*	*	*	*	*
*	*	*	*	*	*	*	*xywh-179:153,481,2008,197	*	*	*	*	*	*	*	*
*	*	*	*	*	*	*	*	*	*	*xywh-179:163,341,1963,177	*	*	*	*	*
*	*	*	*	*	*	*	*	*	*	*	*	*	*xywh-179:163,139,2020,237	*	*
!	!	!LO:TX:b:i:t=poco cres.	!	!	!	!	!	!	!	!	!	!	!	!	!
8G/L	4.E\	(8cc\L	.	2.r	.	.	4e\	tej	.	4g/	-cza-	.	(4cc\	-cza-	.
8c/	.	16ee\L	.	.	.	.	.	.	.	.	.	.	.	.	.
.	.	16gg\J	.	.	.	.	.	.	.	.	.	.	.	.	.
8e/J	.	8ccc\J	.	.	.	.	8e\	pie-	.	8g/	-ry	.	8gg\)	.	.
8G/L	4.E\	8cc\L)	.	.	.	.	4.e\	-cza-	.	8g\L	pły-	.	8cc\	-ry	.
8c/	.	(16b\L	.	.	.	.	.	.	.	16b\L	.	.	8r	.	.
.	.	16cc\	.	.	.	.	.	.	.	16cc\JJ	.	.	.	.	.
8e/J	.	16dd\	.	.	.	.	.	.	.	16dd\LL	-nie	.	8cc\	tam	.
.	.	16cc\JJ)	.	.	.	.	.	.	.	16cc\JJ	.	.	.	.	.
=39	=39	=39	=39	=39	=39	=39	=39	=39	=39	=39	=39	=39	=39	=39	=39
8A/L	4.E\	(8cc#X\L	.	2.r	.	.	4.e\	-ry	.	[4.g/	ży-	.	(4cc\	pły-	.
8c/	.	16ee\L	.	.	.	.	.	.	.	.	.	.	.	.	.
.	.	16gg\J	.	.	.	.	.	.	.	.	.	.	.	.	.
8e/J	.	8ccc#X\J	.	.	.	.	.	.	.	.	.	.	8gg\)	.	.
8A/L	4.E\	8cc#\L)	.	.	.	.	(8E/L	pły-	.	4g/]	.	.	8cc\	-nie	.
8c/	.	(16b#X\L	.	.	.	.	8e/J)	.	.	.	.	.	(16b\LL	ży-	.
.	.	16cc#\	.	.	.	.	.	.	.	.	.	.	16cc\JJ)	.	.
8e/J	.	16dd\	.	.	.	.	8e\	-nie	.	8g/	-cia	.	(16dd\LL	-cia	.
.	.	16cc#\JJ)	.	.	.	.	.	.	.	.	.	.	16cc\JJ)	.	.
=40	=40	=40	=40	=40	=40	=40	=40	=40	=40	=40	=40	=40	=40	=40	=40
*	*	*^	*	*	*	*	*	*	*	*	*	*	*	*	*
*xywh-179:118,758,2035,417	*	*	*	*	*	*	*	*	*	*	*	*	*	*	*	*
*	*xywh-179:118,758,2035,417	*	*	*	*	*	*	*	*	*	*	*	*	*	*	*
*	*	*xywh-179:118,758,2035,417	*	*	*	*	*	*	*	*	*	*	*	*	*	*
*	*	*	*xywh-179:118,758,2035,417	*	*	*	*	*	*	*	*	*	*	*	*	*
8F#/L	4.D\	8dd\L	4.ryy	.	2.r	.	.	4.d\	pły-	.	[4.f#/	zdrój!	.	4dd\	ży-	.
8A/	.	16dd\L	.	.	.	.	.	.	.	.	.	.	.	.	.	.
.	.	16ff#\J	.	.	.	.	.	.	.	.	.	.	.	.	.	.
8d/J	.	8ddd\J	.	.	.	.	.	.	.	.	.	.	.	8ee\	-cia	.
8F#/L	4.D\	8dd/L	8dd\L	.	.	.	.	8d\	-nie	.	4f#/]	.	.	4dd\	zdrój!	.
8A/	.	8cc#X/	16cc#\L	.	.	.	.	(16c\LL	ży-	.	.	.	.	.	.	.
.	.	.	16dd\	.	.	.	.	16d\JJ)	.	.	.	.	.	.	.	.
8d/J	.	16ee/L	16ee\	.	.	.	.	(16e\LL	-cia	.	8r	.	.	8r	.	.
.	.	16dd/JJ	16dd\JJ	.	.	.	.	16d\JJ)	.	.	.	.	.	.	.	.
*v	*v	*	*	*	*	*	*	*	*	*	*	*	*	*	*	*
*	*v	*v	*	*	*	*	*	*	*	*	*	*	*	*	*
!!LO:LB:g=original	!	!	!	!	!	!	!	!	!	!	!	!	!	!
=41	=41	=41	=41	=41	=41	=41	=41	=41	=41	=41	=41	=41	=41	=41
*xywh-179:130,1684,2000,449	*	*	*	*	*	*	*	*	*	*	*	*	*	*
*	*xywh-179:130,1684,2000,449	*	*	*	*	*	*	*	*	*	*	*	*	*
*	*	*	*xywh-179:160,1587,1933,172	*	*	*	*	*	*	*	*	*	*	*
*	*	*	*	*	*	*xywh-179:165,1439,1935,182	*	*	*	*	*	*	*	*
*	*	*	*	*	*	*	*	*	*xywh-179:160,1302,1955,174	*	*	*	*	*
*	*	*	*	*	*	*	*	*	*	*	*	*xywh-179:178,1162,1935,189	*	*
!	!	!	!	!	!	!	!	!LO:DY:a	!	!	!LO:DY:a	!	!	!LO:DY:a
4B-X\ 4d 4fn	(8dd\L	.	2.r	.	.	[4.f#\	zdrój!	pp	4b-X\	wię-	pp	4dd\	wię-	pp
!	!LO:TX:b:i:t=dolce.	!	!	!	!	!	!	!	!	!	!	!	!	!
.	16bb-X\L	.	.	.	.	.	.	.	.	.	.	.	.	.
.	16ddd\J	.	.	.	.	.	.	.	.	.	.	.	.	.
8B-\ 8d 8f	8fffn\J)	.	.	.	.	.	.	.	8dd\	-kszej	.	8ffn\	-kszej	.
4B-\ 4d 4f	8b-X\L 8dd	.	.	.	.	4f#\]	.	.	(8b-\L	nie-	.	(8dd\L	nie-	.
.	(16a\L 16cc	.	.	.	.	.	.	.	16a\L	.	.	16cc\L	.	.
.	16b-\ 16dd	.	.	.	.	.	.	.	16b-\JJ)	.	.	16dd\JJ)	.	.
8B-\ 8d 8f	16cc\ 16ee-X	.	.	.	.	8r	.	.	(16cc\LL	-bo	.	(16ee-X\LL	-bo	.
.	16b-\JJ) 16dd	.	.	.	.	.	.	.	16b-\JJ)	.	.	16dd\JJ)	.	.
=42	=42	=42	=42	=42	=42	=42	=42	=42	=42	=42	=42	=42	=42	=42
4Fn\ 4A 4fn	(8cc\L 8ee-X	.	2.r	.	.	4fn\	wię-	.	4cc\	chce	.	4ee-X\	chce	.
.	16aa\L	.	.	.	.	.	.	.	.	.	.	.	.	.
.	16ccc\J	.	.	.	.	.	.	.	.	.	.	.	.	.
8F\ 8A 8f	8fffn\J)	.	.	.	.	8cn\	-kszej	.	8a/	o-	.	8ff#\	o-	.
4F\ 4A 4f	((4cc\ 4ee-	.	.	.	.	4.f\	Bóg	.	4cc\	-fia-	.	4ee-\	-fia-	.
8F\ 8A 8f	8b-X\)) 8dd	.	.	.	.	.	.	.	8b-X\	-ry	.	8dd\	-ry	.
=43	=43	=43	=43	=43	=43	=43	=43	=43	=43	=43	=43	=43	=43	=43
*^	*	*	*	*	*	*	*	*	*	*	*	*	*	*
*xywh-179:130,1684,2000,449	*	*	*	*	*	*	*	*	*	*	*	*	*	*	*
*	*xywh-179:130,1684,2000,449	*	*	*	*	*	*	*	*	*	*	*	*	*	*
*	*	*xywh-179:130,1684,2000,449	*	*	*	*	*	*	*	*	*	*	*	*	*
4Fn\ 4fn	4.ryy	(8a\L 8cc	.	4Fn\	wstań	.	4fn\	chce	.	4a/	u-	.	4ccn\	u-	.
.	.	16aa\L	.	.	.	.	.	.	.	.	.	.	.	.	.
.	.	16ccc\J	.	.	.	.	.	.	.	.	.	.	.	.	.
8F\ 8f	.	8fffn\J)	.	8F\	Woj-	.	8c\	o-	.	8a/	-lu-	.	8ffn\	-lu-	.
8f/L	4.F\	8a\L 8cc	.	4.F\	-cie-	.	(8c\L	-fia-	.	4a/	-bień-	.	(8cc\L	-bień-	.
(<16c#X/L	.	(16een\L	.	.	.	.	16c#X\L	.	.	.	.	.	16ee\L	.	.
16d/	.	16ff#\	.	.	.	.	16d\JJ)	.	.	.	.	.	16ff\JJ)	.	.
16e-X/	.	16gg\	.	.	.	.	(16e-X\LL	.	.	8a/	-cze	.	(16gg\LL	-cze	.
16d/JJ)	.	16ff#\JJ)	.	.	.	.	16d\JJ)	.	.	.	.	.	16ff\JJ)	.	.
!!LO:LB:g=original	!	!	!	!	!	!	!	!	!	!	!	!	!	!	!
=44	=44	=44	=44	=44	=44	=44	=44	=44	=44	=44	=44	=44	=44	=44	=44
*xywh-179:145,2731,2015,427	*	*	*	*	*	*	*	*	*	*	*	*	*	*	*
*	*xywh-179:145,2731,2015,427	*	*	*	*	*	*	*	*	*	*	*	*	*	*
*	*	*xywh-179:145,2731,2015,427	*	*	*	*	*	*	*	*	*	*	*	*	*
*	*	*	*	*xywh-179:153,2576,1963,197	*	*	*	*	*	*	*	*	*	*	*
*	*	*	*	*	*	*	*xywh-179:180,2446,1948,172	*	*	*	*	*	*	*	*
*	*	*	*	*	*	*	*	*	*	*xywh-179:178,2296,1953,177	*	*	*	*	*
*	*	*	*	*	*	*	*	*	*	*	*	*	*xywh-179:183,2136,1923,189	*	*
4.B-X;\	4.ryy	4.dd;\	.	4.B-X;<\	-chu!	.	4.B-X;\	-ry!	.	4.b-X;\	mój!	.	4.dd;\	mój!	.
!	!	!	!LO:HP:b	!	!	!	!	!	!	!	!	!	!	!	!
4.d/	8D\L	(8f#X/L 8dd	>	(8D\L	spoj-	.	4d\	spoj-	.	4f#X/	spoj-	.	(8dd\L	spoj-	.
.	8En\	8g/ 8cc#X	.	8En\J)	.	.	.	.	.	.	.	.	8cc#X\J)	.	.
.	8F#X\J	8d/J) 8a 8ccn	]	8F#X\	-rzyj	.	8d\	-rzyj	.	8a/	-rzyj	.	8ccn\	-rzyj	.
*v	*v	*	*	*	*	*	*	*	*	*	*	*	*	*	*
=45	=45	=45	=45	=45	=45	=45	=45	=45	=45	=45	=45	=45	=45	=45
!	!LO:TX:b:i:t=a tempo.	!	!	!	!	!	!	!	!	!	!	!	!	!
!	!	!LO:DY:b	!	!	!	!	!	!	!	!	!	!	!	!
4G\ 4d	(8b\L	p	[4.G\	w jas-	.	4d\	spoj-	.	(4.b/	w jas-	.	(4bn\	spoj-	.
.	16gg\L	.	.	.	.	.	.	.	.	.	.	.	.	.
.	16bb\J	.	.	.	.	.	.	.	.	.	.	.	.	.
8G\ 8d	8ddd\J)	.	.	.	.	8d\	-rzyj	.	.	.	.	8dd\)	.	.
4G\ 4d	8b/L	.	4G\]	.	.	4d\	w jas-	.	4f#/)	.	.	8b\	-rzyj	.
.	(16f#/L 16a	.	.	.	.	.	.	.	.	.	.	(16a\LL	w jas-	.
.	16g/ 16b	.	.	.	.	.	.	.	.	.	.	16b\JJ)	.	.
.	8qdd/	.	.	.	.	.	.	.	.	.	.	.	.	.
8G\ 8d	16a/ 16cc	.	8G\	-ne	.	8d\	-ne	.	8a/	-ne	.	(16cc\LL	-ne	.
.	16g/JJ) 16b	.	.	.	.	.	.	.	.	.	.	16b\JJ)	.	.
=46	=46	=46	=46	=46	=46	=46	=46	=46	=46	=46	=46	=46	=46	=46
4F#\ 4d	8a\L 8cc	.	4F#\	gwiazd	.	4d\	gwiazd	.	4g/	gwiazd	.	4cc\	gwiazd	.
.	16ff#\L	.	.	.	.	.	.	.	.	.	.	.	.	.
.	16aa\J	.	.	.	.	.	.	.	.	.	.	.	.	.
8F#\ 8d	8ddd\J	.	8D\	ob-	.	8d\	ob-	.	8b\	ob-	.	8dd\	ob-	.
4F#^\ 4d	[4a/ [4cc	.	4F#\	-sza-	.	4d\	-sza-	.	(8g/L	-sza-	.	4cc\	-sza-	.
.	.	.	.	.	.	.	.	.	16f#/L	.	.	.	.	.
.	.	.	.	.	.	.	.	.	16g/JJ)	.	.	.	.	.
8F#\ 8d	8a/] 8cc]	.	8G\	-ry,	.	8d\	-ry,	.	(16a/LL	-ry,	.	8b\	-ry,	.
.	.	.	.	.	.	.	.	.	16g/JJ)	.	.	.	.	.
!!LO:LB:g=original	!	!	!	!	!	!	!	!	!	!	!	!	!	!
!!LO:PB:g=original	!	!	!	!	!	!	!	!	!	!	!	!	!	!
=47	=47	=47	=47	=47	=47	=47	=47	=47	=47	=47	=47	=47	=47	=47
*xywh-180:412,746,1990,522	*	*	*	*	*	*	*	*	*	*	*	*	*	*
*	*xywh-180:412,746,1990,522	*	*	*	*	*	*	*	*	*	*	*	*	*
*	*	*	*xywh-180:444,634,1968,214	*	*	*	*	*	*	*	*	*	*	*
*	*	*	*	*	*	*xywh-180:462,481,1938,212	*	*	*	*	*	*	*	*
*	*	*	*	*	*	*	*	*	*xywh-180:459,327,1968,212	*	*	*	*	*
*	*	*	*	*	*	*	*	*	*	*	*	*xywh-180:479,114,1925,269	*	*
!	!	!LO:DY:b	!	!	!	!	!	!	!	!	!	!	!	!
4D\ 4d	8f#\L 8a	f	4.D\	tam	.	4.d\	tam	.	4f#/	tam	.	4a/	tam	.
!	!	!LO:HP:b	!	!	!	!	!	!	!	!	!	!	!	!
.	16dd\L	<	.	.	.	.	.	.	.	.	.	.	.	.
.	16ee\	.	.	.	.	.	.	.	.	.	.	.	.	.
8D\ 8F# 8A 8d	16dd\ 16ff#	.	.	.	.	.	.	.	8f#/	spo-	.	8dd\	spo-	.
.	16ee\JJ 16gg	.	.	.	.	.	.	.	.	.	.	.	.	.
4D\ 4F# 4A 4d	16ff#\LL 16aa	.	4D\	wie-	.	4d\	wie-	.	4f#/	-czy-	.	(8dd\L	-czy-	.
.	16gg\ 16bb	.	.	.	.	.	.	.	.	.	.	.	.	.
.	16aa\ 16ccc	.	.	.	.	.	.	.	.	.	.	8ee\J)	.	.
.	16bb\ 16ddd	.	.	.	.	.	.	.	.	.	.	.	.	.
8D\ 8F# 8A 8d	16ccc\ 16eee	.	8D\	-niec	.	8d\	-niec	.	8f#/	-nek	.	8dd\	-nek	.
.	16aa\JJ 16fff#	[	.	.	.	.	.	.	.	.	.	.	.	.
=48	=48	=48	=48	=48	=48	=48	=48	=48	=48	=48	=48	=48	=48	=48
!	!	!LO:DY:b	!	!	!	!	!	!	!	!	!	!	!	!
8GG\L 8G	8bb\L 8ggg	f	4GG/	twój!	.	4G/	twój!	.	4g/	twój!	.	4b\	twój!	.
8G\ 8g	(16gg\L 16bb	.	.	.	.	.	.	.	.	.	.	.	.	.
.	16aa\J 16ccc	.	.	.	.	.	.	.	.	.	.	.	.	.
8F#\J 8f#	8ff#\J) 8aa 8ddd	.	8r	.	.	8r	.	.	8r	.	.	8r	.	.
4E\ 4e	(8ee\L 8gg 8ddd	.	4r	.	.	4r	.	.	4r	.	.	4r	.	.
.	16aa\L 16ccc	.	.	.	.	.	.	.	.	.	.	.	.	.
.	16bb\J)	.	.	.	.	.	.	.	.	.	.	.	.	.
8A\ 8a	8ee\J 8ccc	.	8r	.	.	8r	.	.	8r	.	.	8r	.	.
=49	=49	=49	=49	=49	=49	=49	=49	=49	=49	=49	=49	=49	=49	=49
*	*^	*	*	*	*	*	*	*	*	*	*	*	*	*
*xywh-180:412,746,1990,522	*	*	*	*	*	*	*	*	*	*	*	*	*	*	*
*	*xywh-180:412,746,1990,522	*	*	*	*	*	*	*	*	*	*	*	*	*	*
*	*	*xywh-180:412,746,1990,522	*	*	*	*	*	*	*	*	*	*	*	*	*
4D\ 4d	(8dd\L 8ff# 8ccc	4.ryy	.	2.r	.	.	2.r	.	.	2.r	.	.	2.r	.	.
.	16bb\L	.	.	.	.	.	.	.	.	.	.	.	.	.	.
.	16aa\J)	.	.	.	.	.	.	.	.	.	.	.	.	.	.
8G\ 8g	8dd\J 8gg 8bb	.	.	.	.	.	.	.	.	.	.	.	.	.	.
*	*tuplet	*	*	*	*	*	*	*	*	*	*	*	*	*	*
8C\L 8c	24bb/LL	8bb\L	.	.	.	.	.	.	.	.	.	.	.	.	.
.	24aa/	.	.	.	.	.	.	.	.	.	.	.	.	.	.
.	24gg/J	.	.	.	.	.	.	.	.	.	.	.	.	.	.
8D\ 8d	8ff#/	16dd\L	.	.	.	.	.	.	.	.	.	.	.	.	.
.	.	16cc\J	.	.	.	.	.	.	.	.	.	.	.	.	.
8E\J 8e	8gg/J	8b\J	.	.	.	.	.	.	.	.	.	.	.	.	.
*	*v	*v	*	*	*	*	*	*	*	*	*	*	*	*	*
=50	=50	=50	=50	=50	=50	=50	=50	=50	=50	=50	=50	=50	=50	=50
4C\ 4c	4cc\ 4ee 4aa	.	2.r	.	.	2.r	.	.	2.r	.	.	2.r	.	.
8AA\ 8A	8cc\ 8ee 8ccc	.	.	.	.	.	.	.	.	.	.	.	.	.
(16D\LL 16d	8a\L 8dd 8ff#	.	.	.	.	.	.	.	.	.	.	.	.	.
16C\J 16c	.	.	.	.	.	.	.	.	.	.	.	.	.	.
8BB\) 8B	8b\ 8dd 8gg	.	.	.	.	.	.	.	.	.	.	.	.	.
8GG\J 8G	8dd\J 8gg 8bb	.	.	.	.	.	.	.	.	.	.	.	.	.
=51	=51	=51	=51	=51	=51	=51	=51	=51	=51	=51	=51	=51	=51	=51
*xywh-180:414,1733,1995,437	*	*	*	*	*	*	*	*	*	*	*	*	*	*
*	*xywh-180:414,1733,1995,437	*	*	*	*	*	*	*	*	*	*	*	*	*
*	*	*	*xywh-180:441,1625,1940,217	*	*	*	*	*	*	*	*	*	*	*
*	*	*	*	*	*	*xywh-180:464,1493,1900,222	*	*	*	*	*	*	*	*
*	*	*	*	*	*	*	*	*	*xywh-180:469,1348,1915,227	*	*	*	*	*
*	*	*	*	*	*	*	*	*	*	*	*	*xywh-180:479,1193,1898,237	*	*
8C^\L 8c	8cc\L 8ee 8aa	.	2.r	.	.	2.r	.	.	2.r	.	.	2.r	.	.
8AA^\ 8A	8cc\ 8ee	.	.	.	.	.	.	.	.	.	.	.	.	.
8D^\J 8d	8cc\J 8dd 8ff#	.	.	.	.	.	.	.	.	.	.	.	.	.
4GG^\ 4G	4b\ 4dd 4gg	.	.	.	.	.	.	.	.	.	.	.	.	.
8r	8d^/	.	.	.	.	.	.	.	.	.	.	.	.	.
=52	=52	=52	=52	=52	=52	=52	=52	=52	=52	=52	=52	=52	=52	=52
!	!	!LO:DY:b	!	!	!	!	!	!	!	!	!	!	!	!
4GG\ 4G	16g\LL 16b	mf	4G\	Wstań	.	4d\	Wstań	.	(16g/LL	Wstań	.	(16b\LL	Wstań	.
.	16a\J 16cc	.	.	.	.	.	.	.	16a/J	.	.	16cc\J	.	.
.	8b\ 8dd	.	.	.	.	.	.	.	8b/J)	.	.	8dd\J)	.	.
8FF#\ 8F#	8d\J 8a 8dd	.	8F#\	ob-	.	8d\	ob-	.	8a/	ob-	.	8dd\	ob-	.
4EE\ 4E	(8e\L 8g 8dd	.	4E\	-roń-	.	4d\	-roń-	.	4g/	-roń-	.	(8dd\L	-roń-	.
.	16cc\L	.	.	.	.	.	.	.	.	.	.	16cc\L	.	.
.	16b\J)	.	.	.	.	.	.	.	.	.	.	16b\JJ)	.	.
8AA\ 8A	8e\J 8cc	.	8A\	-co	.	8c\	-co	.	8e/	-co	.	8cc\	-co	.
=53	=53	=53	=53	=53	=53	=53	=53	=53	=53	=53	=53	=53	=53	=53
*	*^	*	*	*	*	*	*	*	*	*	*	*	*	*
*xywh-180:414,1733,1995,437	*	*	*	*	*	*	*	*	*	*	*	*	*	*	*
*	*xywh-180:414,1733,1995,437	*	*	*	*	*	*	*	*	*	*	*	*	*	*
*	*	*xywh-180:414,1733,1995,437	*	*	*	*	*	*	*	*	*	*	*	*	*
4DD/ 4D	8cc/L	4d\ 4f#	.	4D\	wia-	.	8c\L	bos-	.	4f#/	wia-	.	(8dd/L	bos-	.
.	16b/L	.	.	.	.	.	8d\J	.	.	.	.	.	16b/L	.	.
.	16a/J	.	.	.	.	.	.	.	.	.	.	.	16a/JJ)	.	.
8GG\ 8G	8b/J	8d\	.	8G\	-ry	.	8d\	-kiej	.	8g/	-ry	.	8b\	-kiej	.
!	!	!	!	!	!	!	!	!	!	!	!	!	!	!	!
*	*	*	*	*	*	*	*	*	*	*	*	*	*tuplet	*	*
8CC/L 8C	24b/LL	8c\L 8e	.	(<8C/	bos-	.	(8d\	bos-	.	(8e/	bos-	.	(24b/LL	bos-	.
.	24a/	.	.	.	.	.	.	.	.	.	.	.	24a/	.	.
.	24g/J	.	.	.	.	.	.	.	.	.	.	.	24g/JJ	.	.
8DD/ 8D	8f#/	16d\L	.	8D\)	.	.	16d\LL	.	.	8d/)	.	.	8f#/)	.	.
.	.	16c\J	.	.	.	.	16c\JJ)	.	.	.	.	.	.	.	.
8EE/J 8E	8g/J	8B\J	.	8E\	-kiej	.	8B\	-kiej	.	8e/	-kiej	.	8a/	-kiej	.
*	*v	*v	*	*	*	*	*	*	*	*	*	*	*	*	*
!!LO:LB:g=original	!	!	!	!	!	!	!	!	!	!	!	!	!	!
=54	=54	=54	=54	=54	=54	=54	=54	=54	=54	=54	=54	=54	=54	=54
*xywh-180:354,2694,2048,524	*	*	*	*	*	*	*	*	*	*	*	*	*	*
*	*xywh-180:354,2694,2048,524	*	*	*	*	*	*	*	*	*	*	*	*	*
*	*	*	*xywh-180:394,2544,1970,222	*	*	*	*	*	*	*	*	*	*	*
*	*	*	*	*	*	*xywh-180:424,2412,1915,224	*	*	*	*	*	*	*	*
*	*	*	*	*	*	*	*	*	*xywh-180:432,2262,1913,229	*	*	*	*	*
*	*	*	*	*	*	*	*	*	*	*	*	*xywh-180:449,2097,1903,234	*	*
!	!	!LO:HP:b	!	!	!	!	!	!	!	!	!	!	!	!
4CC/ 4C	4e/ 4a	<	(4C/	wia-	.	(4c\	wia-	.	4e/	wia-	.	(4a/	wia-	.
8BBB/ 8BB	8d#X/ 8b	[	8BB/)	.	.	8B\)	.	.	8d#X/	.	.	8b/)	.	.
!	!	!LO:DY:b	!	!	!	!	!	!	!	!	!	!	!	!
4.BBB;/ 4.BB	4.d#;/ 4.b	f	4.BB;/	-ry	.	4.B;\	-ry	.	4.d#;/	-ry	.	4.b;\	-ry	.
=55	=55	=55	=55	=55	=55	=55	=55	=55	=55	=55	=55	=55	=55	=55
*^	*	*	*	*	*	*	*	*	*	*	*	*	*	*
*xywh-180:354,2694,2048,524	*	*	*	*	*	*	*	*	*	*	*	*	*	*	*
*	*xywh-180:354,2694,2048,524	*	*	*	*	*	*	*	*	*	*	*	*	*	*
*	*	*xywh-180:354,2694,2048,524	*	*	*	*	*	*	*	*	*	*	*	*	*
16e/LL	4.E\	(8d/L 8g#X	.	4C/	w Bo-	.	(16e\LL	w Bo-	.	4.e/	w Bo-	.	(8g#X/L	w Bo-	.
16d/J	.	.	.	.	.	.	16d\JJ	.	.	.	.	.	.	.	.
8c/	.	8e/ 8a	.	.	.	.	8c\)	-gu	.	.	.	.	8a/J)	.	.
8A/J	.	8e/J) 8cc	.	8F#\	-gu	.	(8F#/L	ży-	.	.	.	.	8cc\	-gu	.
16d/LL	4.E\	8d/L 8f#	.	4D\	ży-	.	16d/L	.	.	4.d/	-gu	.	(8f#/L	ży-	.
16c/J	.	.	.	.	.	.	16c/J	.	.	.	.	.	.	.	.
8B/	.	8d/ 8gn	.	.	.	.	8B/J)	.	.	.	.	.	8gn/J)	.	.
8G/J	.	8d/J 8b	.	8G\	-cia	.	8G/	-cia	.	.	.	.	8b\	-cia	.
*v	*v	*	*	*	*	*	*	*	*	*	*	*	*	*	*
=56	=56	=56	=56	=56	=56	=56	=56	=56	=56	=56	=56	=56	=56	=56
!	!	!LO:DY:b	!	!	!	!	!	!	!	!	!	!	!	!
4.C\ 4.c	4.e/ 4.a	pp	(4.C/	ży-	.	[4.c\	ży-	.	(4.e/	ży-	.	[4.a/	ży-	.
!	!LO:TX:b:i:t=rall.	!	!	!	!	!	!	!	!	!	!	!	!	!
4DD/ 4D	(4c/ 4f# 4a	.	4D/)	.	.	4c\]	.	.	4f#/)	.	.	4a/]	.	.
8DD/ 8D	8d/ 8f# 8b	.	8D\	-cia	.	8A/	-cia	.	8f#/	-cia	.	8dd\	-cia	.
=57	=57	=57	=57	=57	=57	=57	=57	=57	=57	=57	=57	=57	=57	=57
2.GG;\ 2.G	2.B;/) 2.g	.	2.G;\	zdrój!	.	2.B;\	zdrój!	.	2.g;/	zdrój!	.	2.g;/	zdrój!	.
==	==	==	==	==	==	==	==	==	==	==	==	==	==	==
*-	*-	*-	*-	*-	*-	*-	*-	*-	*-	*-	*-	*-	*-	*-
!!!system-decoration: [(s1,s2,s3,s4)]{s5,s6}
!!!RDF**kern: > = above
!!!RDF**kern: < = below
!!!ENC: Anastazja Marusiak
!!!END: 2022-02-25
!!!ENC: Jan Barakat
!!!END: 2022-03-01
!!!YEC: Copyright 2022 Narodowy Instytut Fryderyka Chopina (https://polishscores.org)
!!!YEM: License CC-BY-4.0 (https://creativecommons.org/licenses/by/4.0)
!!!IIIF: https://polona.pl/iiif/item/MTkzODI1Mzc/manifest.json
!!!ENC-iiif: Lidia Bialucha
!!!END-iiif: 2022-08-30
